X:23
T: Ha én aztat tudtam volna
O: Jósvafő (Abaúj), Bucsek Istvánné - Fodor Zsuzsanna (86), 1952.07
M:2/4
L:1/4
Q: "Tempo guisto" 1/4=84
K:F
A/B/A/G/ | F/G/A | F z | 
F/G/A/G/ | F/E/D | A, z | 
F/G/A/A/ | c/c/ d | A z | 
A/B/A/G/ | F/F/ E | D z | 

